X:58
T:Father's Old Jig
R:jig
C:Bruce Osborne  --  July 1 1994
Z:abc by bosborne@kos.net
M:6/8
L:1/8
K:D
F/E/|DFA BAF|dcd AFA|dcd fed|cee e3/2f3/2|\
gfg ege|cec A2 A|Ace aec|dcB AFE|\
DFA BAF|dcd AFA|dcd fed|cee e2 f|\
gfg ege|cec A2 B|cBA GFE|D4 -D
|:F/G/|AFA BGB|FAc def|gec Ace|a_a=a fdB|\
AFA BGB|FAc def|gec ABc|dfe d2:|
